X:429
%%etbk:tnset id:130,pos:1,rep:3x,ant:
%%etbk:wsite http://www.thesession.org/tunes/display/1649
%%etbk:pldat 2016-09-10T14:37,2016-09-09T18:13,2016-02-10T16:53,2016-01-23T15:14,2016-01-20T15:53,2016-01-19T17:07,2016-01-17T11:43,2015-01-27T17:09,2015-01-06T19:20,2014-12-29T17:47,2014-12-28T15:11,2014-12-03T18:01,2014-12-02T18:06,2014-09-09T18:54,2014-02-07T16:48,2014-02-04T18:14,2013-05-22T17:58,2013-05-10T15:45,2013-05-09T15:29,2013-05-01T16:49
T: Joe Banes Scotische
Z: Piano Box Version by Martin Fleischmann
H: Created 2013-02-19 /  Last Modified 2013-02-19
M: 4/4
L: 1/8
R: barndance
K: Amaj
| !5!a!3!f |: "A"!2!e!1!A AB !3!cc BA| !5!e2 !1!A2 A2 !5!a!2!f | !2!e!1!A AB !3!cc BA | "E"!3!c2 B2 B2 cd |
"A"!5!e!1!A AB !3!cc B!1!A | !2!c2 !3!e2 "D"!5!a3 !3!f | "A"!1!e3 !3!f "E"!1!e!3!c !2!B!5!e |1 "A"!3!c2 !1!A2 A2 !5!a!3!f:|2 "A"!3!c2 !1!A2 A2 !2!c!3!e:|
|: "A"!5!!4!a3 !5!b !4!a!2!f !1!e!4!a | "D"!2!f2 {a}fe !2!f2 !4!a!2!f | "A"!1!e3 {a}f !1!e!3!c !1!A!2!B | "E"!3!c2 !2!B2 !1!B2 !2!c!3!e|
"A"!5!!4!a3 !5!b !4!a!2!f !1!e!4!a | "D"!2!f!1!e !2!c!1!e !2!f2 !4!af | "A" !1!e3 {a}f "E"!1!e!3!c !2!B!5!e |1 "A"!3!c2 !1!A2 A2 !2!c!3!e:|2 "A"!3!c2 !1!A2 A2 !5!a!3!f||


